X:121
T:Seanbhean Bhocht
R:hornpipe
Z:id:hn-hornpipe-121
M:C|
L:1/8
K:Ador
ed | cABG AcBA | GEDE G2Bd | (3efg fa gedc | B2G2 G2ed |
cABG AcBA | GEDE G2Bd | (3efg fa gedB | B2A2 A2 :|
|: (3efg | agab agef | gedB G2ef | gfga gfef | gedB GBAG |
E2A2 AcBA | GEDE G2Bd | (3efg fa gedB | B2A2 A2 :|

